X:78
T: Dem Kuhlips war die Kau gepfaend't
N: D0087
O: Europa, Mitteleuropa, Deutschland, Mittelhessen, Langsdorf
N: Taktart in "FREI" korrigiert; Grundton in der kleinen Oktave
R: Bauern - Klage
M: none
L: 1/8
K: G
d | gdBG | eee2z
e | ddcA | BBz
d | gdBG | eee2z
e | ddcA | BBz

